dist/svgs/crypto-icons/icons/golos.svg

<?xml version="1.0" encoding="UTF-8" standalone="yes"?>
<svg xmlns="http://www.w3.org/2000/svg" xmlns:xlink="http://www.w3.org/1999/xlink" width="512px" height="512px" viewBox="0 0 384 384" version="1.1">
  <g id="surface1">
    <path style=" stroke:none;fill-rule:nonzero;fill:rgb(0%,0%,0%);fill-opacity:1;" d="M 143.960938 155.789062 C 170.679688 152.390625 199.707031 139.78125 216.339844 104.375 C 234.34375 66.058594 202.738281 5.433594 158.050781 0.582031 C 113.355469 -4.269531 71.09375 21.4375 66.242188 68.484375 C 62.351562 106.121094 82.757812 127.171875 93.441406 132.992188 L 54.582031 159.183594 C 75.46875 159.183594 122.585938 158.503906 143.960938 155.789062 Z M 153.859375 19.4375 C 172.503906 21.449219 184.980469 32.757812 190.902344 38.121094 C 191.429688 38.601562 191.910156 39.035156 192.335938 39.410156 L 183.980469 48.863281 L 182.492188 47.535156 L 182.484375 47.53125 C 176.484375 42.148438 166.875 33.527344 152.503906 31.976562 C 134.898438 29.8125 122.558594 36.398438 115.125 40.824219 L 115.121094 40.824219 L 108.660156 29.988281 C 116.445312 25.359375 132.605469 17.40625 153.859375 19.4375 Z M 153.859375 19.4375 "/>
    <path style=" stroke:none;fill-rule:nonzero;fill:rgb(0%,0%,0%);fill-opacity:1;" d="M 344.097656 231.933594 C 322.332031 219.515625 269.289062 231.933594 245.484375 239.695312 C 254.066406 224.820312 273.269531 186.441406 281.433594 151.90625 C 291.027344 111.304688 301.480469 93.015625 311.179688 76.050781 L 311.203125 76.007812 L 313.007812 72.851562 C 320.886719 58.984375 349.644531 42.496094 362.25 35.265625 L 362.84375 34.921875 L 363.523438 34.535156 C 362.484375 34.476562 361.367188 34.410156 360.183594 34.34375 C 341.578125 33.265625 306.957031 31.257812 288.230469 40.355469 C 274.675781 46.941406 258.636719 72.558594 241.355469 100.152344 L 241.351562 100.160156 C 235.722656 109.152344 229.960938 118.351562 224.113281 127.175781 C 200.308594 163.066406 161.449219 178.101562 119.1875 184.890625 C 85.378906 190.324219 35.796875 173.574219 15.234375 164.519531 C 16.53125 172.117188 27.378906 192.75 60.410156 214.476562 C 90.273438 234.121094 115.304688 238.542969 126.875 240.585938 C 131.304688 241.367188 133.761719 241.804688 133.761719 242.605469 C 133.761719 274.632812 119.1875 328.457031 79.839844 343.976562 C 48.289062 356.421875 25.410156 341.421875 17.894531 336.492188 C 16.035156 335.273438 15.117188 334.667969 15.234375 335.246094 C 20.578125 361.433594 35.152344 370.652344 57.007812 378.898438 C 78.867188 387.144531 119.1875 387.625 163.878906 363.375 C 177.175781 356.160156 192.367188 346.144531 208.402344 335.570312 L 208.40625 335.570312 C 246.253906 310.617188 288.796875 282.566406 322.238281 280.925781 C 346.011719 279.757812 356.328125 309.503906 359.988281 320.054688 C 360.890625 322.652344 361.386719 324.085938 361.582031 323.605469 C 374.210938 292.5625 371.296875 247.453125 344.097656 231.933594 Z M 344.097656 231.933594 "/>
  </g>
</svg>

<svg xmlns="http://www.w3.org/2000/svg" viewBox="0 0 384 384"><path d="M143.96 155.79c26.72-3.4 55.747-16.009 72.38-51.415C234.344 66.059 202.738 5.434 158.05.582 113.356-4.27 71.095 21.437 66.243 68.484c-3.89 37.637 16.516 58.688 27.2 64.508l-38.86 26.192c20.887 0 68.004-.68 89.379-3.395zm9.9-136.352c18.644 2.011 31.12 13.32 37.042 18.683.528.48 1.008.914 1.434 1.29l-8.356 9.452-1.488-1.328-.008-.004c-6-5.383-15.609-14.004-29.98-15.554-17.606-2.165-29.945 4.421-37.379 8.847h-.004l-6.46-10.836c7.784-4.629 23.944-12.582 45.198-10.55zm0 0"/><path d="M344.098 231.934c-21.766-12.418-74.809 0-98.614 7.761 8.582-14.875 27.786-53.254 35.95-87.789 9.593-40.601 20.046-58.89 29.746-75.855l.023-.043 1.805-3.156c7.879-13.868 36.637-30.356 49.242-37.586l.594-.344.68-.387c-1.04-.058-2.157-.125-3.34-.191-18.606-1.078-53.227-3.086-71.954 6.011-13.554 6.586-29.593 32.204-46.875 59.797l-.003.008c-5.63 8.992-11.391 18.192-17.239 27.016-23.804 35.89-62.664 50.926-104.925 57.715-33.81 5.433-83.391-11.317-103.954-20.371 1.297 7.597 12.145 28.23 45.176 49.957 29.863 19.644 54.895 24.066 66.465 26.109 4.43.781 6.887 1.219 6.887 2.02 0 32.027-14.575 85.851-53.922 101.37-31.55 12.446-54.43-2.554-61.945-7.484-1.86-1.219-2.778-1.824-2.66-1.246 5.343 26.188 19.917 35.406 41.773 43.652 21.86 8.247 62.18 8.727 106.87-15.523 13.298-7.215 28.49-17.23 44.524-27.805h.004c37.848-24.953 80.39-53.004 113.832-54.644 23.774-1.168 34.09 28.578 37.75 39.129.903 2.597 1.399 4.03 1.594 3.55 12.629-31.043 9.715-76.152-17.484-91.671zm0 0"/></svg>
